X:356
T: Am Samstag wird der Schlu gemacht (4-55), S. 73
N: P0616
O: Lothringen
S: PINCK, Louis: Verklingende Weisen Bd 4, Kassel 1939]
R: Abschiedslied, Liebe]
M: 4/4
L: 1/8
K: Eb
B,2 | E2EFG2GA | B2cBG2z2 | B2cBG2
BB | A2G2F2B2 | BAGFE2B,2 |
G2G2F2B,2 | A2A2G2z2 |
B2edcBBA | G2F2B2z2 |
G2G2F2B,2 | A2A2G2z2 |
B2edcBBA | G2F2E2

